X: 802
T: President Garfield's Hornpipe
B: jims roots
M:4/4
L:1/8
Q: 1/4=100
K:Bb
V:1 
dc |: "Bb"BFDF BFDF | BABc dcde | "F"fcAc fcAc |
f=efg f_edc | "Bb"BFDF BFDF | BABc dcde |
"F"fbag fedc | [1 "Bb"BdcA B2 DF:|[2 "Bb"BdcA B2 ba||
|:"Eb"geBG EGBg | "Bb"fdBF DFBd | "F"eAgf eAgf |
"Bb"dBgf dBba | "Eb"geBG EGBg |"Bb"fdBF DFBd |
"F"egfe dcBA |[1 "Bb" BdcA B2 ba:|[2 "Bb" BdcA B4||
% abcbook-tune_id 6298c2790ab114b70b884993


% abcbook-boost 0
% abcbook-tablature 
% abcbook-transpose 
% abcbook-lastupdated 1654178426654
% abcbook-soundfonts 
% abcbook-repeats 1


